casedrop/img/icons/media/youtube.svg

<svg width="22" height="22" viewBox="0 0 22 22" fill="none" xmlns="http://www.w3.org/2000/svg">
<g clip-path="url(#clip0_35_5772)">
<path fill-rule="evenodd" clip-rule="evenodd" d="M9.13082 13.7708V7.75818C11.2653 8.76257 12.9185 9.73283 14.8737 10.7789C13.2611 11.6732 11.2653 12.6767 9.13082 13.7708ZM21.0264 4.7678C20.6582 4.2827 20.0307 3.9051 19.3626 3.78008C17.3988 3.40717 5.14783 3.40611 3.18515 3.78008C2.64939 3.88052 2.17232 4.12328 1.76249 4.50047C0.0356747 6.10322 0.576777 14.6983 0.993006 16.0905C1.16804 16.6932 1.3943 17.1278 1.67926 17.4131C2.04639 17.7902 2.54906 18.05 3.12645 18.1664C4.74334 18.5009 13.0732 18.6879 19.3284 18.2166C19.9047 18.1162 20.4149 17.8481 20.8172 17.4549C22.4138 15.8586 22.305 6.78086 21.0264 4.7678Z" fill="#393F4F"/>
</g>
<defs>
<clipPath id="clip0_35_5772">
<rect width="21.4286" height="21.4286" fill="white" transform="translate(0.571777 0.285645)"/>
</clipPath>
</defs>
</svg>

<svg width="22" height="22" fill="none" xmlns="http://www.w3.org/2000/svg"><g clip-path="url(#clip0_35_5772)"><path fill-rule="evenodd" clip-rule="evenodd" d="M9.13 13.77V7.759c2.135 1.005 3.788 1.975 5.744 3.02-1.613.895-3.609 1.899-5.743 2.993zm11.896-9.002c-.368-.485-.995-.863-1.663-.988-1.964-.373-14.215-.374-16.178 0-.536.1-1.013.343-1.423.72C.036 6.103.577 14.698.993 16.09c.175.603.401 1.038.686 1.323.367.377.87.637 1.447.753 1.617.335 9.947.522 16.202.05a2.806 2.806 0 001.49-.761c1.596-1.596 1.487-10.674.208-12.687z" fill="#393F4F"/></g><defs><clipPath id="clip0_35_5772"><path fill="#fff" transform="translate(.572 .286)" d="M0 0h21.429v21.429H0z"/></clipPath></defs></svg>
